X:118
T:Take Her Away
B:Terry "Cuz" Teahan "Sliabh Luachra on Parade" 1980
Z:Patrick Cavanagh
M:2/4
L:1/8
R:Polka
K:D
B | Ad f2 | ge f2 | fe eB/c/ | ed c/B/A | 
Ad f2 | ge f2 | fe eB | ed d :| 
e | fA AA | BA AA | fe eB/c/ | ed c/B/A | 
fA AA | BA AA | fe eB | ed d :|| 

